X:328
T:AULDLNG6- Comin thro' the rye. 1st set
O:england
S:Scots Musical Museum, #417 (1797)
Q:1/4=120
L:1/8
M:C
K:G
G/ G3/2 G3/2 E/ A3/2 G/ A/ B3/2|D/ D3/2 E D/ G3zD/|\
G/ G3/2 G3/2 E/ A3/2 G/ A/ B3/2|D/ D3/2 E3/2 D/G3||\
(B/c/)|d/ B3/2 (G3/2B/) A3/2 G/ A/ B3/2|\
D/ B3/2 G3/2 B/E3f/g/|d3/2 e/ d3/2 B/ e/ A3/2 A3/2 B/|\
D/ D3/2 E3/2 D/G3||]


